X:547
T: STIEGLITZ STIEGLITZ ZEISERL IS KRANK
N: E1828
O: Europa, Mitteleuropa, Oesterreich
R: Kinder - Lied, Trost
M: 3/8
L: 1/8
K: G
 | d2B | d2B |
dcA | G2z |
AAB | c2B |
AAB | c2A |
BBc | d2B |
ccA | GGG

@@@ Tune index: 5231
